public/icon/watch.svg

<svg width="23" height="23" viewBox="0 0 23 23" fill="none" xmlns="http://www.w3.org/2000/svg">
<g filter="url(#filter0_bi_220_2568)">
<rect width="22.8163" height="22.8163" rx="11.4082" fill="#D9D9D9" fill-opacity="0.05"/>
</g>
<g clip-path="url(#clip0_220_2568)">
<path d="M11.4073 2.28151C9.60223 2.28151 7.83771 2.81677 6.33686 3.81961C4.83601 4.82244 3.66625 6.24781 2.97548 7.91547C2.28472 9.58312 2.10398 11.4182 2.45613 13.1885C2.80828 14.9589 3.6775 16.5851 4.95386 17.8615C6.23023 19.1378 7.85642 20.0071 9.62679 20.3592C11.3972 20.7114 13.2322 20.5306 14.8999 19.8399C16.5675 19.1491 17.9929 17.9793 18.9957 16.4785C19.9985 14.9776 20.5338 13.2131 20.5338 11.408C20.5338 8.98753 19.5723 6.66616 17.8607 4.95461C16.1492 3.24305 13.8278 2.28151 11.4073 2.28151ZM11.9777 19.3652V17.1121H10.8369V19.3652C8.92373 19.2264 7.12447 18.4036 5.76812 17.0472C4.41176 15.6909 3.58893 13.8916 3.4501 11.9784H5.70321V10.8376H3.4501C3.58893 8.92448 4.41176 7.12522 5.76812 5.76886C7.12447 4.4125 8.92373 3.58968 10.8369 3.45085V5.70396H11.9777V3.45085C13.8908 3.58968 15.6901 4.4125 17.0465 5.76886C18.4028 7.12522 19.2256 8.92448 19.3645 10.8376H17.1114V11.9784H19.3645C19.2256 13.8916 18.4028 15.6909 17.0465 17.0472C15.6901 18.4036 13.8908 19.2264 11.9777 19.3652Z" fill="url(#paint0_linear_220_2568)"/>
<path d="M11.9777 7.41528H10.8369V11.4081C10.8365 11.4832 10.8509 11.5576 10.8793 11.6271C10.9077 11.6966 10.9495 11.7598 11.0023 11.8131L13.8544 14.6652L14.6587 13.8609L11.9777 11.1743V7.41528Z" fill="url(#paint1_linear_220_2568)"/>
</g>
<defs>
<filter id="filter0_bi_220_2568" x="-43.7318" y="-43.7318" width="110.28" height="110.28" filterUnits="userSpaceOnUse" color-interpolation-filters="sRGB">
<feFlood flood-opacity="0" result="BackgroundImageFix"/>
<feGaussianBlur in="BackgroundImageFix" stdDeviation="21.8659"/>
<feComposite in2="SourceAlpha" operator="in" result="effect1_backgroundBlur_220_2568"/>
<feBlend mode="normal" in="SourceGraphic" in2="effect1_backgroundBlur_220_2568" result="shape"/>
<feColorMatrix in="SourceAlpha" type="matrix" values="0 0 0 0 0 0 0 0 0 0 0 0 0 0 0 0 0 0 127 0" result="hardAlpha"/>
<feOffset/>
<feGaussianBlur stdDeviation="8.74635"/>
<feComposite in2="hardAlpha" operator="arithmetic" k2="-1" k3="1"/>
<feColorMatrix type="matrix" values="0 0 0 0 1 0 0 0 0 1 0 0 0 0 1 0 0 0 0.05 0"/>
<feBlend mode="normal" in2="shape" result="effect2_innerShadow_220_2568"/>
</filter>
<linearGradient id="paint0_linear_220_2568" x1="2.28076" y1="11.408" x2="20.5338" y2="11.408" gradientUnits="userSpaceOnUse">
<stop stop-color="#3068D0"/>
<stop offset="0.5" stop-color="#836BAF"/>
<stop offset="1" stop-color="#978262"/>
</linearGradient>
<linearGradient id="paint1_linear_220_2568" x1="10.8369" y1="11.0402" x2="14.6587" y2="11.0402" gradientUnits="userSpaceOnUse">
<stop stop-color="#3068D0"/>
<stop offset="0.5" stop-color="#836BAF"/>
<stop offset="1" stop-color="#978262"/>
</linearGradient>
<clipPath id="clip0_220_2568">
<rect width="18.253" height="18.2531" fill="white" transform="translate(2.28174 2.28165)"/>
</clipPath>
</defs>
</svg>

<svg width="23" height="23" fill="none" xmlns="http://www.w3.org/2000/svg"><g filter="url(#a)"><rect width="22.816" height="22.816" rx="11.408" fill="#D9D9D9" fill-opacity=".05"/></g><g clip-path="url(#b)"><path d="M11.407 2.282a9.127 9.127 0 1 0 0 18.253 9.127 9.127 0 0 0 0-18.253Zm.57 17.083v-2.253h-1.14v2.253a7.985 7.985 0 0 1-7.387-7.387h2.253v-1.14H3.45a7.986 7.986 0 0 1 7.387-7.387v2.253h1.14V3.451a7.986 7.986 0 0 1 7.387 7.387h-2.253v1.14h2.253a7.986 7.986 0 0 1-7.386 7.387Z" fill="url(#c)"/><path d="M11.978 7.415h-1.141v3.993a.57.57 0 0 0 .165.405l2.852 2.852.805-.804-2.681-2.687V7.415Z" fill="url(#d)"/></g><defs><linearGradient id="c" x1="2.281" y1="11.408" x2="20.534" y2="11.408" gradientUnits="userSpaceOnUse"><stop stop-color="#3068D0"/><stop offset=".5" stop-color="#836BAF"/><stop offset="1" stop-color="#978262"/></linearGradient><linearGradient id="d" x1="10.837" y1="11.04" x2="14.659" y2="11.04" gradientUnits="userSpaceOnUse"><stop stop-color="#3068D0"/><stop offset=".5" stop-color="#836BAF"/><stop offset="1" stop-color="#978262"/></linearGradient><clipPath id="b"><path fill="#fff" transform="translate(2.282 2.282)" d="M0 0h18.253v18.253H0z"/></clipPath><filter id="a" x="-43.732" y="-43.732" width="110.28" height="110.28" filterUnits="userSpaceOnUse" color-interpolation-filters="sRGB"><feFlood flood-opacity="0" result="BackgroundImageFix"/><feGaussianBlur in="BackgroundImageFix" stdDeviation="21.866"/><feComposite in2="SourceAlpha" operator="in" result="effect1_backgroundBlur_220_2568"/><feBlend in="SourceGraphic" in2="effect1_backgroundBlur_220_2568" result="shape"/><feColorMatrix in="SourceAlpha" values="0 0 0 0 0 0 0 0 0 0 0 0 0 0 0 0 0 0 127 0" result="hardAlpha"/><feOffset/><feGaussianBlur stdDeviation="8.746"/><feComposite in2="hardAlpha" operator="arithmetic" k2="-1" k3="1"/><feColorMatrix values="0 0 0 0 1 0 0 0 0 1 0 0 0 0 1 0 0 0 0.05 0"/><feBlend in2="shape" result="effect2_innerShadow_220_2568"/></filter></defs></svg>
